symbols/web/dashboard/materialsymbolsoutlined/dashboard_wght200gradN25_48px.svg

<svg xmlns="http://www.w3.org/2000/svg" height="48" width="48"><path d="M26.75 18.7V8.05h13.2V18.7Zm-18.7 5.05V8.05h13.2v15.7Zm18.7 16.2v-15.7h13.2v15.7Zm-18.7 0V29.3h13.2v10.65Zm1.5-17.7H19.7V9.55H9.55Zm18.75 16.2h10.15v-12.7H28.3Zm0-21.25h10.15V9.55H28.3ZM9.55 38.45H19.7V30.8H9.55Zm10.15-16.2Zm8.6-5.05Zm0 8.55Zm-8.6 5.05Z"/></svg>

<svg xmlns="http://www.w3.org/2000/svg" height="48" width="48"><path d="M26.75 18.7V8.05H39.95V18.7ZM8.05 23.75V8.05H21.25V23.75ZM26.75 39.95V24.25H39.95V39.95ZM8.05 39.95V29.3H21.25V39.95ZM9.55 22.25H19.7V9.55H9.55ZM28.3 38.45H38.45V25.75H28.3ZM28.3 17.2H38.45V9.55H28.3ZM9.55 38.45H19.7V30.8H9.55ZM19.7 22.25ZM28.3 17.2ZM28.3 25.75ZM19.7 30.8Z"/></svg>
